Obsidian/actions/16s/go-jump-declaration.svg

<svg height="16" viewBox="0 0 16 16" width="16" xmlns="http://www.w3.org/2000/svg"><path d="m1 1.0039062v13.9999998h2v-7.9999998h6v-5h-6v-1zm12 1-1 1-1 1 2 2v-1.2851562c.623984.9431764 1 2.0637868 1 3.2851562 0 3.3239168-2.676083 4.9999998-6 4.9999998v1c3.877903 0 7-2.122097 7-5.9999998 0-1.9090522-.768031-3.6239439-2-4.8828124z" fill="#bebebe"/></svg>

<svg xmlns="http://www.w3.org/2000/svg" width="16" height="16" viewBox="0 0 16 16">
 <defs>
  <style id="current-color-scheme" type="text/css">
   .ColorScheme-Text { color:#bebebe; } .ColorScheme-Highlight { color:#4285f4; }
  </style>
 </defs>
 <path style="fill:currentColor" class="ColorScheme-Text" d="M 1 1.0039062 L 1 15.003906 L 3 15.003906 L 3 7.0039062 L 9 7.0039062 L 9 2.0039062 L 3 2.0039062 L 3 1.0039062 L 1 1.0039062 z M 13 2.0039062 L 12 3.0039062 L 11 4.0039062 L 13 6.0039062 L 13 4.71875 C 13.623984 5.6619264 14 6.7825368 14 8.0039062 C 14 11.327823 11.323917 13.003906 8 13.003906 L 8 14.003906 C 11.877903 14.003906 15 11.881809 15 8.0039062 C 15 6.094854 14.231969 4.3799623 13 3.1210938 L 13 2.0039062 z"/>
</svg>
